X: 2424
M: C
L: 1/8
K: A
|:\
E2 A>B c<e ze | f>ec>e a2{g}a2 |\
E2 A>B c<e ze | fedc Be^de |\
zEA>B c<e ze | fe^de faga |\
b>ga>f ecAB | zcBG A4 :|
|:\
z2e2 e4 | (3(cBA) B>G A>cB>A |\
E2{g}a2 z2{g}a2 | f>e^d>e f>ag>a |\
b>ga>f ecAB | zcBG A4 :|


